X:51
T:Rights of Man
Z: id:dc-hornpipe-46
M:C|
L:1/8
K:E Minor
GA|(3BcB (3ABA (3GAG (3FGF|EFGA B2ef|gfed edBd|cBAG A2GA|!
(3BcB (3ABA (3GAG (3FGF|EFGA B2ef|gfed Bgfg|e2E2 E2:|!
ga|babg efga|babg egfe|d2d^c defg|afdf a2gf|!
edef gfga|(3bag (3agf gfef|gfed Bgfg|e2E2 E2:|!